src/assets/img/icons/duotone-icons/Weather/Wind.svg

<?xml version="1.0" encoding="UTF-8"?>
<svg width="24px" height="24px" viewBox="0 0 24 24" version="1.1" xmlns="http://www.w3.org/2000/svg" xmlns:xlink="http://www.w3.org/1999/xlink">
    <!-- Generator: Sketch 52.2 (67145) - http://www.bohemiancoding.com/sketch -->
    <title>Stockholm-icons / Weather / Wind</title>
    <desc>Created with Sketch.</desc>
    <g id="Stockholm-icons-/-Weather-/-Wind" stroke="none" stroke-width="1" fill="none" fill-rule="evenodd">
        <polygon id="Shape" points="0 0 24 0 24 24 0 24"></polygon>
        <path d="M3,13 L3,11 L17.5,11 C18.3284271,11 19,10.3284271 19,9.5 L19,9 C19,8.44771525 18.5522847,8 18,8 C17.4477153,8 17,8.44771525 17,9 L17,10 L15,10 L15,9 C15,7.34314575 16.3431458,6 18,6 C19.6568542,6 21,7.34314575 21,9 L21,9.5 C21,11.4329966 19.4329966,13 17.5,13 L3,13 Z" id="Path-34" fill="#335EEA"></path>
        <path d="M3,9 L3,7 L9.5,7 C10.3284271,7 11,6.32842712 11,5.5 L11,5 C11,4.44771525 10.5522847,4 10,4 C9.44771525,4 9,4.44771525 9,5 L9,6 L7,6 L7,5 C7,3.34314575 8.34314575,2 10,2 C11.6568542,2 13,3.34314575 13,5 L13,5.5 C13,7.43299662 11.4329966,9 9.5,9 L3,9 Z M3,15 L9.5,15 C11.4329966,15 13,16.5670034 13,18.5 L13,19 C13,20.6568542 11.6568542,22 10,22 C8.34314575,22 7,20.6568542 7,19 L7,18 L9,18 L9,19 C9,19.5522847 9.44771525,20 10,20 C10.5522847,20 11,19.5522847 11,19 L11,18.5 C11,17.6715729 10.3284271,17 9.5,17 L3,17 L3,15 Z" id="Combined-Shape" fill="#335EEA" opacity="0.3"></path>
    </g>
</svg>

<svg width="24" height="24" viewBox="0 0 24 24" xmlns="http://www.w3.org/2000/svg"><g fill="none" fill-rule="evenodd"><path d="M0 0h24v24H0z"/><path d="M3 13v-2h14.5A1.5 1.5 0 0019 9.5V9a1 1 0 00-2 0v1h-2V9a3 3 0 016 0v.5a3.5 3.5 0 01-3.5 3.5H3z" fill="#335EEA"/><path d="M3 9V7h6.5A1.5 1.5 0 0011 5.5V5a1 1 0 00-2 0v1H7V5a3 3 0 116 0v.5A3.5 3.5 0 019.5 9H3zm0 6h6.5a3.5 3.5 0 013.5 3.5v.5a3 3 0 01-6 0v-1h2v1a1 1 0 002 0v-.5A1.5 1.5 0 009.5 17H3v-2z" fill="#335EEA" opacity=".3"/></g></svg>
